Numix/64/emotes/face-uncertain.svg

<?xml version="1.0" encoding="UTF-8" standalone="no"?>
<svg
   xmlns:dc="http://purl.org/dc/elements/1.1/"
   xmlns:cc="http://creativecommons.org/ns#"
   xmlns:rdf="http://www.w3.org/1999/02/22-rdf-syntax-ns#"
   xmlns:svg="http://www.w3.org/2000/svg"
   xmlns="http://www.w3.org/2000/svg"
   xmlns:sodipodi="http://sodipodi.sourceforge.net/DTD/sodipodi-0.dtd"
   xmlns:inkscape="http://www.inkscape.org/namespaces/inkscape"
   width="64px"
   height="64px"
   viewBox="0 0 48 48"
   version="1.1"
   id="svg551"
   inkscape:version="0.91 r"
   sodipodi:docname="face-uncertain.svg">
  <metadata
     id="metadata566">
    <rdf:RDF>
      <cc:Work
         rdf:about="">
        <dc:format>image/svg+xml</dc:format>
        <dc:type
           rdf:resource="http://purl.org/dc/dcmitype/StillImage" />
      </cc:Work>
    </rdf:RDF>
  </metadata>
  <defs
     id="defs564" />
  <sodipodi:namedview
     pagecolor="#ffffff"
     bordercolor="#666666"
     borderopacity="1"
     objecttolerance="10"
     gridtolerance="10"
     guidetolerance="10"
     inkscape:pageopacity="0"
     inkscape:pageshadow="2"
     inkscape:window-width="640"
     inkscape:window-height="480"
     id="namedview562" />
  <g
     id="surface1">
    <path
       style=" stroke:none;fill-rule:nonzero;fill:rgb(100%,85.490196%,36.862745%);fill-opacity:1;"
       d="M 42 24 C 42 32.5625 33.941406 39.5 24 39.5 C 14.058594 39.5 6 32.5625 6 24 C 6 15.441406 14.058594 8.5 24 8.5 C 33.941406 8.5 42 15.441406 42 24 Z M 42 24 "
       id="path554" />
    <path
       style=" stroke:none;fill-rule:nonzero;fill:rgb(39.607843%,39.607843%,39.607843%);fill-opacity:1;"
       d="M 19.851562 18.824219 L 15.558594 19.972656 C 15.519531 20.148438 15.5 20.324219 15.5 20.5 C 15.5 21.878906 16.621094 23 18 23 C 19.378906 23 20.5 21.878906 20.5 20.5 C 20.5 19.878906 20.269531 19.28125 19.851562 18.824219 Z M 19.851562 18.824219 "
       id="path556" />
    <path
       style=" stroke:none;fill-rule:nonzero;fill:rgb(39.607843%,39.607843%,39.607843%);fill-opacity:1;"
       d="M 32.5 20.5 C 32.5 21.878906 31.378906 23 30 23 C 28.621094 23 27.5 21.878906 27.5 20.5 C 27.5 19.121094 28.621094 18 30 18 C 31.378906 18 32.5 19.121094 32.5 20.5 Z M 32.5 20.5 "
       id="path558" />
    <path
       style="fill:none;stroke-width:1.5;stroke-linecap:butt;stroke-linejoin:miter;stroke:rgb(39.607843%,39.607843%,39.607843%);stroke-opacity:1;stroke-miterlimit:4;"
       d="M 18.882812 30 C 18.738281 29.265625 18.964844 28.464844 19.46875 27.910156 C 19.753906 27.597656 20.121094 27.363281 20.515625 27.214844 C 20.914062 27.066406 21.34375 27.007812 21.765625 27.023438 C 22.605469 27.050781 23.425781 27.367188 24.082031 27.890625 C 24.804688 28.46875 25.304688 29.269531 25.90625 29.976562 C 26.496094 30.675781 27.207031 31.296875 28.050781 31.652344 C 28.625 31.898438 29.257812 32.011719 29.882812 31.988281 "
       id="path560" />
  </g>
</svg>

<svg xmlns="http://www.w3.org/2000/svg" width="64" height="64" viewBox="0 0 48 48">
 <g>
  <path d="m 42 24 c 0 8.563 -8.06 15.5 -18 15.5 c -9.941 0 -18 -6.938 -18 -15.5 c 0 -8.559 8.06 -15.5 18 -15.5 c 9.941 0 18 6.941 18 15.5 m 0 0" style="fill:#ffd95d;fill-opacity:1;stroke:none;fill-rule:nonzero"/>
  <path d="m 19.852 18.824 l -4.293 1.148 c -0.039 0.176 -0.059 0.352 -0.059 0.527 c 0 1.379 1.121 2.5 2.5 2.5 c 1.379 0 2.5 -1.121 2.5 -2.5 c 0 -0.621 -0.23 -1.219 -0.648 -1.676 m 0 0" style="fill:#646464;fill-opacity:1;stroke:none;fill-rule:nonzero"/>
  <path d="m 32.5 20.5 c 0 1.379 -1.121 2.5 -2.5 2.5 c -1.379 0 -2.5 -1.121 -2.5 -2.5 c 0 -1.379 1.121 -2.5 2.5 -2.5 c 1.379 0 2.5 1.121 2.5 2.5 m 0 0" style="fill:#646464;fill-opacity:1;stroke:none;fill-rule:nonzero"/>
  <path d="m 18.883 30 c -0.145 -0.734 0.082 -1.535 0.586 -2.09 c 0.285 -0.313 0.652 -0.547 1.047 -0.695 c 0.398 -0.148 0.828 -0.207 1.25 -0.191 c 0.84 0.027 1.66 0.344 2.316 0.867 c 0.723 0.578 1.223 1.379 1.824 2.086 c 0.59 0.699 1.301 1.32 2.145 1.676 c 0.574 0.246 1.207 0.359 1.832 0.336" style="stroke-opacity:1;fill:none;stroke-miterlimit:4;stroke:#646464;stroke-linecap:butt;stroke-linejoin:miter;stroke-width:1.5"/>
 </g>
</svg>
